svg/fluentui-system-icons/ic_fluent_align_top_20_regular.svg

<svg width="20" height="20" viewBox="0 0 20 20" fill="none" xmlns="http://www.w3.org/2000/svg">
<path d="M2 3.5C2 3.22386 2.22386 3 2.5 3H17.5C17.7761 3 18 3.22386 18 3.5C18 3.77614 17.7761 4 17.5 4H2.5C2.22386 4 2 3.77614 2 3.5ZM11 7C11 5.89543 11.8954 5 13 5L14 5C15.1046 5 16 5.89543 16 7V12C16 13.1046 15.1046 14 14 14H13C11.8954 14 11 13.1046 11 12V7ZM13 6C12.4477 6 12 6.44772 12 7V12C12 12.5523 12.4477 13 13 13H14C14.5523 13 15 12.5523 15 12V7C15 6.44772 14.5523 6 14 6L13 6ZM6 5C4.89543 5 4 5.89543 4 7L4 15C4 16.1046 4.89543 17 6 17H7C8.10457 17 9 16.1046 9 15L9 7C9 5.89543 8.10457 5 7 5L6 5ZM5 7C5 6.44772 5.44772 6 6 6L7 6C7.55228 6 8 6.44772 8 7L8 15C8 15.5523 7.55228 16 7 16H6C5.44771 16 5 15.5523 5 15L5 7Z" fill="#212121"/>
</svg>

<svg xmlns="http://www.w3.org/2000/svg" width="20" height="20"><path d="M2 3.5a.5.5 0 0 1 .5-.5h15a.5.5 0 0 1 0 1h-15a.5.5 0 0 1-.5-.5ZM11 7a2 2 0 0 1 2-2h1a2 2 0 0 1 2 2v5a2 2 0 0 1-2 2h-1a2 2 0 0 1-2-2V7Zm2-1a1 1 0 0 0-1 1v5a1 1 0 0 0 1 1h1a1 1 0 0 0 1-1V7a1 1 0 0 0-1-1h-1ZM6 5a2 2 0 0 0-2 2v8a2 2 0 0 0 2 2h1a2 2 0 0 0 2-2V7a2 2 0 0 0-2-2H6ZM5 7a1 1 0 0 1 1-1h1a1 1 0 0 1 1 1v8a1 1 0 0 1-1 1H6a1 1 0 0 1-1-1V7Z"/></svg>
